X: 4806
T: City of Belfast
C: Marian Anderson
N: Tune for the dance by the same name.
R: air
Z: 2011, 2015 John Chambers <jc:trillian.mit.edu> (from earlier transcription simpler chords)
M: C
L: 1/8
K: D
Ad/e/ |\
"D"f3 g "C#/A"ef/e/ dc | "Bm7"d2 cB "A"cB Ac |\
"G"B2 AG "F#/D"FE DA, | "G"B,D GF "A7"EG dc |
"Bm"d3 e/f/ "G"ga bg | "A7"c3 d/e/ "D"fg af |\
"G"G2 cd "A7"ef/e/ dc | "D-G-D"d6 |]
de |\
"D"f3 g "C#/A"aA Bc | "Bm"d3 e "A"cd/c/ BA |\
"G"Gd2G "F#/D"Fd2F | "Em"eE FG "A7"A^A Bc |
"Bm"d3 c/B/ "C#/A"cd ef | "Bm"dD2D "E/A7"CD EF |\
"G"B,2 cd "A7"ef/e/ dc | "D-G-D"d6 |]
